src/icons/icons_set_01/056-horse.svg

<svg height="50" viewBox="0 0 50 50" width="50" xmlns="http://www.w3.org/2000/svg"><path d="m34.4974235 26.7264996c.064457-.3189161.0981129-.675199.0981129-1.0726993v-2.6699009c-.0281902-.0640339-.0579045-.1265763-.08914-.1876504-.0073147-.0143023-.0142616-.0286023-.0208472-.0428946-.0077416-.0127946-.0152308-.0258149-.0224581-.0390573-.7700586-1.4109571-2.511348-2.156147-5.3777719-2.156147h-7.6243446c-.1573335 0-.312447-.0371238-.4527329-.1083538-3.5207465-1.7876571-5.8802959-3.8104076-7.0501901-6.1057323-.133844-.2626011-1.0436685-2.1230201-1.2757979-2.5476345-.7891555-1.4435351-1.375947-1.86936831-2.75843879-1.86936831h-2.24417828l-.00000866-.58954618-.21973426.50711092c-.19021424-.082421-.37164309-.158902-.54416073-.2294314.00998445.07942995.01504965.16124532.01504965.24585077 0 .6534625-.40733699 3.4892856-1.25163431 8.7761795.69843849.5029306 1.13936878.5092009 1.51095394.176206.09916442-.0888659.18114905-.1775954.24867891-.2668916.22484204-.2973135.28313293-.5286172.33682368-1.1684395.06421674-.7652586.15661721-1.1218039.59569093-1.5214266.61310878-.5580206 1.06429068-.9026632 1.6048892-1.1077522 1.25066122-.4744685 2.22776222.3207374 2.22776222 1.8473025 0 .5569-.0164473.8496671-.1215392 2.429995-.0568178.8544016-.0870527 1.3988453-.1044179 1.9643388-.0413064 1.3451345.0165111 2.3889745.2005048 3.1888246.3356739 1.4592281 1.9086743 5.6938506 4.6867304 12.594974-.3126637-3.9205471-.4675113-6.1863112-.4675113-6.8574057 0-1.1516209.9285216-1.535803 1.8775832-1.2491931.2247226.0678647.4636401.1679402.7719441.3152562.1680789.0803126.7973021.3947622.7713786.38196.2536135.1252457.4526807.218808.6402937.2993093.4471763.191875.7849227.2860353 1.002061.2860353.8821299 0 1.9761361-.3049911 3.2700593-.9330029.6006211-.2915144 1.3127726.0761535 1.4229349.7346295.4162204 2.4878847.8086166 4.0310082 1.0724772 4.4297941.4448728.672359.2563829 1.2914644-.2894968 2.2101534-.2217399.3731774-1.2466254 1.8879619-1.256641 1.9032586-.6403711.9780296-1.0489521 1.7428202-1.2700617 2.445861h.982227v-1.0892722c0-.3095215.1433296-.6015974.388154-.7909769 1.9302418-1.4931037 2.9007498-2.5941073 2.9007498-2.9401566 0-2.2363592.6008033-4.6553946 1.9930728-5.7550382.2260718-.1785563.4793375-.3355383.8022206-.5078369.9910929-.5288724 1.9514353.7194255 1.2255132 1.5387074 1.2157687.6721154 2.1560198 2.00927 2.8787435 3.7932062.2341804.5780397.4348895 1.1800911.6052114 1.7895145v-2.8243612c-1.4862983-1.1812509-1.9788262-3.4120855-1.6162296-6.5984213-.0869708-.1809359-.1198547-.3955074-.0724857-.6298767zm1.8330053 13.0334021c-.1931077.1745892-.4727569.5944005-.8160636 1.2400983h.729918c.1500263-.3463679.3793526-.6419102.6685837-.8841397-.110406-.2308672-.2110616-.4919812-.3039724-.7827922-.0536168.1615656-.1483736.309217-.2784657.4268336zm-20.3378132.9811098h.180807l.9033511-1.3544448c-.0342154-.4171046-.067128-.8205-.0987401-1.2102313-.1852085 1.134558-.4973476 1.9920655-.985418 2.5646761zm-.4808622.251162c-.0840941-.0744268-.1372908-.1332056-.160929-.1685966.0184158.0412866.0320994.0957772.0320994.1717806 0 .0647969-.0075999.118785-.0173606.1619949zm-7.83212543-31.65465849.17785216-.41045382v-1h-.17787286zm31.89650973 17.06077229c.0393546.108947.0594808.2239033.0594808.3397404v4.7819908c0 1.500421.8207078 2.7093356 2.0423103 2.7093356.6213617 0 1.4343195-.4541775 2.2829886-1.2396295.0244956-.0226709.0488785-.0454814.0731438-.0684208-.8148268-.2908703-1.4171353-.7997234-1.7683791-1.5443736-.0719202-.1524736-.1041257-.3206549-.093623-.4889119.1614412-2.5863406-.4032059-4.753928-1.6868838-6.5428211-.823082-1.1470209-1.8367319-1.6668695-3.1465111-1.5653832 1.0084868 1.0795738 1.7565009 2.2869742 2.2374735 3.6184733zm-2.9272114.4867042c-.4784327 3.220098-.0590475 5.0575114 1.0275074 5.6687536.0188351.0105958.0372408.0217499.055201.0334351-.0634836-.3462694-.0960162-.7040725-.0960162-1.0671617v-4.6017259c-.2588486-.6726198-.604995-1.3074029-1.0400821-1.9052814v.6407891c0 .2266631-.008537.4462256-.0255527.6589162.0776739.1656348.1105352.3596408.0789426.572275zm1.5372125 10.4899613c.1645004.8517821.3480359 1.4761849.5355323 1.8563598.0420101.0851813.0799679.1494892.110212.1931694 1.0614597.1804911 1.1041706 1.8209527-.0654274 1.9753065-.0825911.0108997-.2657785.0616059-.4330237.156343-.2059956.1166874-.287934.2343038-.287934.4438685 0 .5522847-.4477153 1-1 1h-3.1285801c-.7263332 0-1.2103756-.7498983-.9112786-1.4117903.5996841-1.3270814 1.1134877-2.2733718 1.5856297-2.8762338-.0340186-.1735991-.0774646-.3788279-.1309615-.6093885-.1876504-.8087341-.4309502-1.6163166-.7330372-2.3619735-.6856694-1.6924731-1.5327488-2.7323667-2.4887875-2.9740767-.3523626.8674019-.5571055 2.0678586-.5571055 3.1540686 0 1.1696984-1.0932626 2.4733331-3.2889038 4.2179205v1.6024852c0 .5522848-.4477153 1-1 1h-3.1552086c-.5522847 0-1-.4477152-1-1 0-.4866348.0810387-.984815.2338416-1.4978944.2833024-.9512691.7758035-1.8825553 1.5359603-3.043532.0404733-.0618141 1.0240935-1.5156086 1.2105083-1.8293355.0851502-.1433036.1477439-.2610929.1882645-.3506068-.3466491-.6847672-.6671422-1.8855403-1.0028766-3.6812208-1.0675291.4055626-2.0466212.6118958-2.9419884.6118958-.5473413 0-1.1156608-.1584417-1.7906914-.4480848-.2257979-.0968857-.4544463-.2043513-.7372493-.344012.0074779.0036929-.2673723-.1336758-.492975-.2454209.0868745 1.4843307.3071655 4.3859993.6585 8.6569548.0184909.2247815-.0395486.4492131-.1646933.6368496l-1.3934464 2.0892722c-.185482.2781034-.4976574.4451348-.8319403.4451348h-1.8594785c-.2441723 0-.4799076-.089336-.6627531-.251162-1.1018468-.9751806-1.1018468-2.2591678.1844928-2.959683.2344918-.1276996.509301-.7625149.671376-1.9289536-2.8484143-7.0731361-4.4417661-11.3608893-4.8127166-12.9734705-.23039242-1.0015528-.29658809-2.1966524-.25046711-3.6985723.01827716-.595192.04959821-1.1591937.10788321-2.0356588.0774684-1.1649363.1050249-1.6057335.1136472-1.9698629-.1438938.1121836-.30547355.2505821-.4829644.4121253.08125443-.0739537.07184745-.037655.05110168.2095684-.08323053.9918421-.21717381 1.5233417-.73461385 2.2075639-.14591987.192953-.31528247.376249-.50912824.5499633-1.3134804 1.1770714-2.94560741.9244112-4.58034924-.4936256-.26126183-.2266284-.38687132-.5721687-.33213316-.9136682.86796923-5.4150716 1.31840704-8.5260785 1.31840704-9.0345302 0 .03917837-.10111813-.10104895-.34884397-.31667093-.05638413-.04907707-.47610999-.39201744-.58406736-.49378637-.17354334-.16359531-.29172325-.30751079-.3771618-.52872677-.20832816-.53939957.03217862-1.11752892.542854-1.36508345.7620145-.36939344 1.90791699-.08078275 3.89994289.77028341h1.86030852c2.19464459 0 3.40111229.87553071 4.51332319 2.91000341.2580488.4720268 1.1871814 2.3719271 1.302811 2.5987917.9277198 1.82018 2.9063457 3.5392858 5.9624702 5.1222938h7.3828999c3.1161891 0 5.3755554.8118343 6.6718821 2.4903166 2.6234324-.73072 4.8120623-.0165575 6.3529034 2.1307099 1.5090923 2.1030232 2.1985279 4.621159 2.0746522 7.5183892.2703113.3288932.8364231.5203546 1.8152431.5203546.8168296 0 1.2890993.9262868.8093221 1.5873651-.0232554.0320433-.0627716.0847738-.1175358.1553076-.0880216.1133676-.1891632.2386031-.3024618.372844-.3227351.3823899-.6814914.7646187-1.0699195 1.1241129-1.1849614 1.096694-2.3933788 1.7718041-3.6414762 1.7718041-1.6299355 0-2.8388075-.928177-3.49179-2.2519578zm-33.1861388-10.2724491v1.1607541c.14615265-.3710784.50779887-.6336956.93078263-.6336956h5.14383117l-.6675486-2.2887363c-2.63093321.088378-4.41827766.6963985-5.4070652 1.7616778zm0 4.5619949v-.0862859c-.00846404-.0361227-.01688866-.0724758-.02527341-.1090595l.01732771.1531661c.00256829.0140633.00521688.028123.0079457.0421793zm1.71346415 3.8622638.37581065-.5980232c-.92673521-.8564909-1.56531094-1.7168132-1.89574365-2.5887237.43908986 1.5936695.96350398 2.6460815 1.519933 3.1867469zm.21731848-4.5764446c0 .8322515.66120144 1.8481938 2.09141709 3.0059798.39343341.3184917.48683104.8807409.21749798 1.3093275l-1.34521588 2.1406266c-.23893685.3802174-.70202553.5545321-1.13237248.4262448-1.78169095-.5311257-2.96273613-2.5390486-3.73683593-5.916541-.01679537-.0732803-.02527341-.1482208-.02527341-.2234012v-4.9545266c0-.2203627.07278811-.4345548.20705307-.6092907 1.46685979-1.9090098 4.14044101-2.8090807 7.94938853-2.7990626.4434689.0011664.833198.2942647.9573698.7199963l1.254136 4.2998913c.1866668.6400001-.2933332 1.2800002-.96 1.2800002h-5.47716477z"/></svg>

<?xml version="1.0" encoding="UTF-8"?>
<svg width="50px" height="50px" viewBox="0 0 50 50" version="1.1" xmlns="http://www.w3.org/2000/svg" xmlns:xlink="http://www.w3.org/1999/xlink">
    <!-- Generator: Sketch 52.6 (67491) - http://www.bohemiancoding.com/sketch -->
    <title>056-horse</title>
    <desc>Created with Sketch.</desc>
    <g id="056-horse" stroke="none" stroke-width="1" fill="none" fill-rule="evenodd">
        <path d="M34.4974235,26.7264996 C34.5618805,26.4075835 34.5955364,26.0513006 34.5955364,25.6538003 L34.5955364,22.9838994 C34.5673462,22.9198655 34.5376319,22.8573231 34.5063964,22.796249 C34.4990817,22.7819467 34.4921348,22.7676467 34.4855492,22.7533544 C34.4778076,22.7405598 34.4703184,22.7275395 34.4630911,22.7142971 C33.6930325,21.30334 31.9517431,20.5581501 29.0853192,20.5581501 L21.4609746,20.5581501 C21.3036411,20.5581501 21.1485276,20.5210263 21.0082417,20.4497963 C17.4874952,18.6621392 15.1279458,16.6393887 13.9580516,14.344064 C13.8242076,14.0814629 12.9143831,12.2210439 12.6822537,11.7964295 C11.8930982,10.3528944 11.3063067,9.92706119 9.92381491,9.92706119 L7.67963663,9.92706119 L7.67962797,9.33751501 L7.45989371,9.84462593 C7.26967947,9.76220493 7.08825062,9.68572393 6.91573298,9.61519453 C6.92571743,9.69462448 6.93078263,9.77643985 6.93078263,9.8610453 C6.93078263,10.5145078 6.52344564,13.3503309 5.67914832,18.6372248 C6.37758681,19.1401554 6.8185171,19.1464257 7.19010226,18.8134308 C7.28926668,18.7245649 7.37125131,18.6358354 7.43878117,18.5465392 C7.66362321,18.2492257 7.7219141,18.017922 7.77560485,17.3780997 C7.83982159,16.6128411 7.93222206,16.2562958 8.37129578,15.8566731 C8.98440456,15.2986525 9.43558646,14.9540099 9.97618498,14.7489209 C11.2268462,14.2744524 12.2039472,15.0696583 12.2039472,16.5962234 C12.2039472,17.1531234 12.1874999,17.4458905 12.082408,19.0262184 C12.0255902,19.88062 11.9953553,20.4250637 11.9779901,20.9905572 C11.9366837,22.3356917 11.9945012,23.3795317 12.1784949,24.1793818 C12.5141688,25.6386099 14.0871692,29.8732324 16.8652253,36.7743558 C16.5525616,32.8538087 16.397714,30.5880446 16.397714,29.9169501 C16.397714,28.7653292 17.3262356,28.3811471 18.2752972,28.667757 C18.5000198,28.7356217 18.7389373,28.8356972 19.0472413,28.9830132 C19.2153202,29.0633258 19.8445434,29.3777754 19.8186199,29.3649732 C20.0722334,29.4902189 20.2713006,29.5837812 20.4589136,29.6642825 C20.9060899,29.8561575 21.2438363,29.9503178 21.4609746,29.9503178 C22.3431045,29.9503178 23.4371107,29.6453267 24.7310339,29.0173149 C25.331655,28.7258005 26.0438065,29.0934684 26.1539688,29.7519444 C26.5701892,32.2398291 26.9625854,33.7829526 27.226446,34.1817385 C27.6713188,34.8540975 27.4828289,35.4732029 26.9369492,36.3918919 C26.7152093,36.7650693 25.6903238,38.2798538 25.6803082,38.2951505 C25.0399371,39.2731801 24.6313561,40.0379707 24.4102465,40.7410115 L25.3924735,40.7410115 L25.3924735,39.6517393 C25.3924735,39.3422178 25.5358031,39.0501419 25.7806275,38.8607624 C27.7108693,37.3676587 28.6813773,36.2666551 28.6813773,35.9206058 C28.6813773,33.6842466 29.2821806,31.2652112 30.6744501,30.1655676 C30.9005219,29.9870113 31.1537876,29.8300293 31.4766707,29.6577307 C32.4677636,29.1288583 33.428106,30.3771562 32.7021839,31.1964381 C33.9179526,31.8685535 34.8582037,33.2057081 35.5809274,34.9896443 C35.8151078,35.567684 36.0158169,36.1697354 36.1861388,36.7791588 L36.1861388,33.9547976 C34.6998405,32.7735467 34.2073126,30.5427121 34.5699092,27.3563763 C34.4829384,27.1754404 34.4500545,26.9608689 34.4974235,26.7264996 Z M36.3304288,39.7599017 C36.1373211,39.9344909 35.8576719,40.3543022 35.5143652,41 L36.2442832,41 C36.3943095,40.6536321 36.6236358,40.3580898 36.9128669,40.1158603 C36.8024609,39.8849931 36.7018053,39.6238791 36.6088945,39.3330681 C36.5552777,39.4946337 36.4605209,39.6422851 36.3304288,39.7599017 Z M15.9926156,40.7410115 L16.1734226,40.7410115 L17.0767737,39.3865667 C17.0425583,38.9694621 17.0096457,38.5660667 16.9780336,38.1763354 C16.7928251,39.3108934 16.480686,40.1684009 15.9926156,40.7410115 Z M15.5117534,40.9921735 C15.4276593,40.9177467 15.3744626,40.8589679 15.3508244,40.8235769 C15.3692402,40.8648635 15.3829238,40.9193541 15.3829238,40.9953575 C15.3829238,41.0601544 15.3753239,41.1141425 15.3655632,41.1573524 L15.5117534,40.9921735 Z M7.67962797,9.33751501 L7.85748013,8.92706119 L7.85748013,7.92706119 L7.67960727,7.92706119 L7.67962797,9.33751501 Z M39.5761377,26.3982873 C39.6154923,26.5072343 39.6356185,26.6221906 39.6356185,26.7380277 L39.6356185,31.5200185 C39.6356185,33.0204395 40.4563263,34.2293541 41.6779288,34.2293541 C42.2992905,34.2293541 43.1122483,33.7751766 43.9609174,32.9897246 C43.985413,32.9670537 44.0097959,32.9442432 44.0340612,32.9213038 C43.2192344,32.6304335 42.6169259,32.1215804 42.2656821,31.3769302 C42.1937619,31.2244566 42.1615564,31.0562753 42.1720591,30.8880183 C42.3335003,28.3016777 41.7688532,26.1340903 40.4851753,24.3451972 C39.6620933,23.1981763 38.6484434,22.6783277 37.3386642,22.779814 C38.347151,23.8593878 39.0951651,25.0667882 39.5761377,26.3982873 Z M36.6489263,26.8849915 C36.1704936,30.1050895 36.5898788,31.9425029 37.6764337,32.5537451 C37.6952688,32.5643409 37.7136745,32.575495 37.7316347,32.5871802 C37.6681511,32.2409108 37.6356185,31.8831077 37.6356185,31.5200185 L37.6356185,26.9182926 C37.3767699,26.2456728 37.0306235,25.6108897 36.5955364,25.0130112 L36.5955364,25.6538003 C36.5955364,25.8804634 36.5869994,26.1000259 36.5699837,26.3127165 C36.6476576,26.4783513 36.6805189,26.6723573 36.6489263,26.8849915 Z M38.1861388,37.3749528 C38.3506392,38.2267349 38.5341747,38.8511377 38.7216711,39.2313126 C38.7636812,39.3164939 38.801639,39.3808018 38.8318831,39.424482 C39.8933428,39.6049731 39.9360537,41.2454347 38.7664557,41.3997885 C38.6838646,41.4106882 38.5006772,41.4613944 38.333432,41.5561315 C38.1274364,41.6728189 38.045498,41.7904353 38.045498,42 C38.045498,42.5522847 37.5977827,43 37.045498,43 L33.9169179,43 C33.1905847,43 32.7065423,42.2501017 33.0056393,41.5882097 C33.6053234,40.2611283 34.119127,39.3148379 34.591269,38.7119759 C34.5572504,38.5383768 34.5138044,38.333148 34.4603075,38.1025874 C34.2726571,37.2938533 34.0293573,36.4862708 33.7272703,35.7406139 C33.0416009,34.0481408 32.1945215,33.0082472 31.2384828,32.7665372 C30.8861202,33.6339391 30.6813773,34.8343958 30.6813773,35.9206058 C30.6813773,37.0903042 29.5881147,38.3939389 27.3924735,40.1385263 L27.3924735,41.7410115 C27.3924735,42.2932963 26.9447582,42.7410115 26.3924735,42.7410115 L23.2372649,42.7410115 C22.6849802,42.7410115 22.2372649,42.2932963 22.2372649,41.7410115 C22.2372649,41.2543767 22.3183036,40.7561965 22.4711065,40.2431171 C22.7544089,39.291848 23.24691,38.3605618 24.0070668,37.1995851 C24.0475401,37.137771 25.0311603,35.6839765 25.2175751,35.3702496 C25.3027253,35.226946 25.365319,35.1091567 25.4058396,35.0196428 C25.0591905,34.3348756 24.7386974,33.1341025 24.402963,31.338422 C23.3354339,31.7439846 22.3563418,31.9503178 21.4609746,31.9503178 C20.9136333,31.9503178 20.3453138,31.7918761 19.6702832,31.502233 C19.4444853,31.4053473 19.2158369,31.2978817 18.9330339,31.158221 C18.9405118,31.1619139 18.6656616,31.0245452 18.4400589,30.9128001 C18.5269334,32.3971308 18.7472244,35.2987994 19.0985589,39.5697549 C19.1170498,39.7945364 19.0590103,40.018968 18.9338656,40.2066045 L17.5404192,42.2958767 C17.3549372,42.5739801 17.0427618,42.7410115 16.7084789,42.7410115 L14.8490004,42.7410115 C14.6048281,42.7410115 14.3690928,42.6516755 14.1862473,42.4898495 C13.0844005,41.5146689 13.0844005,40.2306817 14.3707401,39.5301665 C14.6052319,39.4024669 14.8800411,38.7676516 15.0421161,37.6012129 C12.1937018,30.5280768 10.60035,26.2403236 10.2293995,24.6277424 C9.99900708,23.6261896 9.93281141,22.43109 9.97893239,20.9291701 C9.99720955,20.3339781 10.0285306,19.7699764 10.0868156,18.8935113 C10.164284,17.728575 10.1918405,17.2877778 10.2004628,16.9236484 C10.056569,17.035832 9.89498925,17.1742305 9.7174984,17.3357737 C9.79875283,17.26182 9.78934585,17.2981187 9.76860008,17.5453421 C9.68536955,18.5371842 9.55142627,19.0686838 9.03398623,19.752906 C8.88806636,19.945859 8.71870376,20.129155 8.52485799,20.3028693 C7.21137759,21.4799407 5.57925058,21.2272805 3.94450875,19.8092437 C3.68324692,19.5826153 3.55763743,19.237075 3.61237559,18.8955755 C4.48034482,13.4805039 4.93078263,10.369497 4.93078263,9.8610453 C4.93078263,9.90022367 4.8296645,9.75999635 4.58193866,9.54437437 C4.52555453,9.4952973 4.10582867,9.15235693 3.9978713,9.050588 C3.82432796,8.88699269 3.70614805,8.74307721 3.6207095,8.52186123 C3.41238134,7.98246166 3.65288812,7.40433231 4.1635635,7.15677778 C4.925578,6.78738434 6.07148049,7.07599503 8.06350639,7.92706119 L9.92381491,7.92706119 C12.1184595,7.92706119 13.3249272,8.8025919 14.4371381,10.8370646 C14.6951869,11.3090914 15.6243195,13.2089917 15.7399491,13.4358563 C16.6676689,15.2560363 18.6462948,16.9751421 21.7024193,18.5581501 L29.0853192,18.5581501 C32.2015083,18.5581501 34.4608746,19.3699844 35.7572013,21.0484667 C38.3806337,20.3177467 40.5692636,21.0319092 42.1101047,23.1791766 C43.619197,25.2821998 44.3086326,27.8003356 44.1847569,30.6975658 C44.4550682,31.026459 45.02118,31.2179204 46,31.2179204 C46.8168296,31.2179204 47.2890993,32.1442072 46.8093221,32.8052855 C46.7860667,32.8373288 46.7465505,32.8900593 46.6917863,32.9605931 C46.6037647,33.0739607 46.5026231,33.1991962 46.3893245,33.3334371 C46.0665894,33.715827 45.7078331,34.0980558 45.319405,34.45755 C44.1344436,35.554244 42.9260262,36.2293541 41.6779288,36.2293541 C40.0479933,36.2293541 38.8391213,35.3011771 38.1861388,33.9773963 L38.1861388,37.3749528 Z M5,27.1025037 L5,28.2632578 C5.14615265,27.8921794 5.50779887,27.6295622 5.93078263,27.6295622 L11.0746138,27.6295622 L10.4070652,25.3408259 C7.77613199,25.4292039 5.98878754,26.0372244 5,27.1025037 Z M5,31.6644986 L5,31.5782127 C4.99153596,31.54209 4.98311134,31.5057369 4.97472659,31.4691532 L4.9920543,31.6223193 C4.99462259,31.6363826 4.99727118,31.6504423 5,31.6644986 Z M6.71346415,35.5267624 L7.0892748,34.9287392 C6.16253959,34.0722483 5.52396386,33.211926 5.19353115,32.3400155 C5.63262101,33.933685 6.15703513,34.986097 6.71346415,35.5267624 Z M6.93078263,30.9503178 C6.93078263,31.7825693 7.59198407,32.7985116 9.02219972,33.9562976 C9.41563313,34.2747893 9.50903076,34.8370385 9.2396977,35.2656251 L7.89448182,37.4062517 C7.65554497,37.7864691 7.19245629,37.9607838 6.76210934,37.8324965 C4.98041839,37.3013708 3.79937321,35.2934479 3.02527341,31.9159555 C3.00847804,31.8426752 3,31.7677347 3,31.6925543 L3,26.7380277 C3,26.517665 3.07278811,26.3034729 3.20705307,26.128737 C4.67391286,24.2197272 7.34749408,23.3196563 11.1564416,23.3296744 C11.5999105,23.3308408 11.9896396,23.6239391 12.1138114,24.0496707 L13.3679474,28.349562 C13.5546142,28.9895621 13.0746142,29.6295622 12.4079474,29.6295622 L6.93078263,29.6295622 L6.93078263,30.9503178 Z" id="Combined-Shape" fill="#000000" fill-rule="nonzero"></path>
    </g>
</svg>
